X:1
T:Cliffs of Moher, The
R:jig
D:Tommy Keane: The Piper's Apron
Z:id:hn-jig-224
M:6/8
L:1/8
K:Ador
aga bag|eaf ged|c2A BAG|EFG ABd|
eaa bag|eaf ged|c2A BAG|EFG A3:|
efe dBA|efe dBA|GAB dBA|GAB dBd|
efe dBA|efe dBA|GAB dBG|EFG A3|
efe dBA|efe dBA|GAB dBA|GAB dBd|
~e3 dee|cee Bee|EFG BAG|EDB, A,3|]
